public/images/fbs.svg

<svg width="21.5" height="21.5" fill="none" xmlns="http://www.w3.org/2000/svg"><path d="M18.75.75a2 2 0 0 1 2 2v16c0 1.1-.9 2-2 2h-16a2 2 0 0 1-2-2v-16c0-1.11.89-2 2-2h16zm-5.78 16.66H8.52m5.56-16.27V6.3l-3.33-.79-3.34.79V.75" stroke="#1B31FF" stroke-width="1.5" stroke-linejoin="round" stroke-linecap="round"/></svg>

<svg width="21.500000" height="21.500000" viewBox="0 0 21.5 21.5" fill="none" xmlns="http://www.w3.org/2000/svg" xmlns:xlink="http://www.w3.org/1999/xlink">
	<desc>
			Created with Pixso.
	</desc>
	<defs/>
	<path id="Vector" d="M18.75 0.75C19.85 0.75 20.75 1.64 20.75 2.75L20.75 18.75C20.75 19.85 19.85 20.75 18.75 20.75L2.75 20.75C1.64 20.75 0.75 19.85 0.75 18.75L0.75 2.75C0.75 1.64 1.64 0.75 2.75 0.75L18.75 0.75ZM12.97 17.41L8.52 17.41M14.08 1.14L14.08 6.3L10.75 5.51L7.41 6.3L7.41 0.75" stroke="#1B31FF" stroke-opacity="1.000000" stroke-width="1.500000" stroke-linejoin="round" stroke-linecap="round"/>
</svg>
